X:12
T:Digue, Dzoneto
R:Ronde
M:2/4
L:1/8
N:Anim
N:La Bourre 4th edition 1929, page 29
Z:Steve Mansfield www.lesession.co.uk April 2012
K:C
c2 d e | d2 G2 | c d e c |
d d/ e/ d G | c2 d e | d2 G2 | c d e c | d4 |
d2 c A | A2 G G | A G A B | c c/ c/ c c |
d2 c B | A2 G G | A G A B | c4 |]

